!!!COM: Bach, Johann Sebastian
!!!OTL: 273. Ein' feste Burg ist unser Gott
!!!ONM: No. 273
!!!OCL: Erk
!!!SCA: BWV 80.8
!!!YOE: Riemenschneider, Albert
!!!OPR: 371 Harmonized Chorales and 69 Chorale Melodies with Figured Bass
!!!OPT: Bach Chorale Harmonizations
!!!ONB: From the end of Cantata 80.
**harm	**root	**kern	**kern	**kern	**kern
!	!	!bass	!tenor	!alto	!sprno
*Iorgan	*Iorgan	*Iorgan	*Iorgan	*Iorgan	*Iorgan
*>[A,A,B]	*>[A,A,B]	*>[A,A,B]	*>[A,A,B]	*>[A,A,B]	*>[A,A,B]
*>norep[A,B]	*>norep[A,B]	*>norep[A,B]	*>norep[A,B]	*>norep[A,B]	*>norep[A,B]
*>A	*>A	*>A	*>A	*>A	*>A
*k[f#c#g#d#]	*k[f#c#g#d#]	*k[f#c#g#d#]	*k[f#c#g#d#]	*k[f#c#g#d#]	*k[f#c#g#d#]
*E:	*E:	*E:	*E:	*E:	*E:
*met(c)	*met(c)	*met(c)	*met(c)	*met(c)	*met(c)
*M4/4	*M4/4	*M4/4	*M4/4	*M4/4	*M4/4
*MM60	*MM60	*MM60	*MM60	*MM60	*MM60
I	4DD	8e	8g#	4b	4ee
.	.	8d#	8f#	.	.
=1	=1	=1	=1	=1	=1
vi7	4BB	4c#	8e	8b	4ee
.	.	.	8f#	8a	.
Ic	4DD	8B	8g#	8g#	4ee
.	.	8A	8a	8f#	.
Ib	8DD	8G#	4b	4e	8b
IV	8GG	8A	.	.	8cc#
viib	4CC#	8G#	4a	4f#	4dd#
.	.	8F#	.	.	.
=2	=2	=2	=2	=2	=2
Ib	8DD	4G#	4g#	8B	8ee
iii	8FF#	.	.	4b	8dd#
V/V	4EE	4F#	8c#	.	4cc#
.	.	.	8f#	8a#	.
V;	4AA;	4BB;	4d#;	4f#;	4b;
vi	4BB	4C#	8G#	4cc#	4ee
.	.	.	8A#	.	.
=3	=3	=3	=3	=3	=3
Vb	4AA	8D#	4B	8f#	4dd#
.	.	8E	.	8g#	.
ii	4EE	4F#	8f#	4a	4cc#
.	.	.	8e	.	.
iii	4FF#	4G#	4d#	8g#	4b
.	.	.	.	8f#	.
IV	8GG	8A	8c#	8e	8cc#
V	8AA	8B	8d#	8d#	8b
=4	=4	=4	=4	=4	=4
IVb	4GG	8c#	4e	4c#	8a
.	.	8A	.	.	8g#
V	4AA	8B	8B	4d#	4f#
.	.	8BB	8A	.	.
I;	4DD;	4E;	4G#;	4B;	4e;
=:|!	=:|!	=:|!	=:|!	=:|!	=:|!
*>B	*>B	*>B	*>B	*>B	*>B
!! Repeat from the beginning.
!! Continuing.
I	4DD	8E	8G#	4e	4e
.	.	8F#	8A	.	.
=5	=5	=5	=5	=5	=5
iii	4FF#	4G#	8B	8d#	4b
.	.	.	8e	8g#	.
Vb/V	4EE	4A#	8d#	4f#	4cc#
.	.	.	8c#	.	.
V	4AA	8B	4d#	8f#	4b
.	.	8E	.	8g#	.
V/V	4EE	4F#	4c#	4f#	4a#
=6	=6	=6	=6	=6	=6
!!linebreak: 2
V;	2AA;	2BB;	2d#;	2f#;	2b;
vi	4BB	4C#	8G#	4e	4e
.	.	.	8A	.	.
Ib	4DD	4G#	4B	8e	4b
.	.	.	.	8d	.
=7	=7	=7	=7	=7	=7
IV	4GG	4A	4e	8c#	4cc#
.	.	.	.	8e	.
viib	4CC#	4F#	4f#	4a	4dd#
I;	4DD;	4E;	4B;	4g#;	4ee;
iii	4FF#	4G#	4B	4g#	4dd#
=8	=8	=8	=8	=8	=8
vi7	4BB	4C#	8B	4g#	4ee
.	.	.	8A#	.	.
Vb	4AA	4D#	4B	8f#	4dd#
.	.	.	.	8b	.
vi7b	4BB	4E	4B	4g#	2cc#
V/V	4EE	4F#	4A#	8f#	.
.	.	.	.	8e	.
=9	=9	=9	=9	=9	=9
V;	4AA;	4BB;	4F#;	4d#;	4b;
ii	4EE	8F#	8A	4f#	4cc#
.	.	8G#	8B	.	.
IV	4GG	4A	8c#	8e	4cc#
.	.	.	8d#	8f#	.
I	4DD	4E	8e	4g#	4b
.	.	.	8d	.	.
=10	=10	=10	=10	=10	=10
Vb/ii	4BB	4E#	4c#	4g#	8cc#
.	.	.	.	.	8b
ii	4EE	4F#	4c#	8g#	4a
.	.	.	.	8f#	.
VI;	4BB;	4C#;	4c#;	4e#;	4g#;
vi	4BB	4C#	8c#	4g#	4ee
.	.	.	8B	.	.
=11	=11	=11	=11	=11	=11
viib	4CC#	8F#	8A	4f#	4dd#
.	.	8G#	8B	.	.
IV	8GG	8A	4c#	8e	4cc#
ii	8EE	8F#	.	8a	.
V7b	8AA	8D#	8f#	8a	4b
V	8AA	8BB	8d#	16g#	.
.	.	.	.	16f#	.
I	4DD	8E	4e	4g#	8cc#
.	.	8D#	.	.	8b
=12	=12	=12	=12	=12	=12
IVb	8GG	8C#	4e	8a	8a
IV7	8GG	8AA	.	8c#	8g#
V	4AA	4BB	8B	4d#	4f#
.	.	.	8A	.	.
I;	4DD;	4EE;	4G#;	4B;	4e;
==	==	==	==	==	==
*-	*-	*-	*-	*-	*-
!!!CDT: 1685/3//-1750/7/28
!!!OCY: Deutschland
!!!AGN: chorale
!!!AST: Baroque
!!!AIN: vox
!!!YOY: 1941
!!!PPP: New York; London
!!!PPR: G. Schirmer
!!!ENC: David Huron
!!!EED: David Huron
!!!YEN: United States of America
!!!YER: 1992
!!!YEC: Copyright 1992 David Huron
!!!YEM: Rights to all derivative electronic formats reserved.
!!!YER: March 20, 1996
!!!AMT: simple quadruple
!!!EEV: 1.1
!!chor2scor: -l 2 -s 0.6 -o %b.pmx
